X:815
T:Durrow, The
R:reel
D:Sliabh Notes: Gleanntan
Z:transcribed by Dave Marshall
M:C|
K:D
|: DEFA d2cd | BAFB AFEF | DEFA defe | dBAF E2FE |
DEFA dcde | fd~d2 BdAd | eAce gece |1 dAFA dAFE :|2 dAFA d2cd |
|: eA (3AAA A3f | ecef gfeg | fd (3ddd dcde | fgaf d2cd |
Beed efed | cdef gefg | abaf gece |1 dAFA d2cd :|2 dAFA dAFE |
